src/static/logos/pm2.svg

<?xml version="1.0" encoding="UTF-8" standalone="no"?>
<svg width="512px" height="88px" viewBox="0 0 512 88" version="1.1" xmlns="http://www.w3.org/2000/svg" xmlns:xlink="http://www.w3.org/1999/xlink" preserveAspectRatio="xMidYMid">
	<g>
		<path d="M260.758341,1.13228747 L279.782242,1.13228747 C295.827713,24.2605996 312.415671,48.674694 329.155023,72.8049281 C345.841807,48.7346201 361.872559,24.5423573 378.10832,1.12282546 L397.141684,1.12282546 L397.141684,87.2607803 L384.597158,87.2607803 L384.597158,13.4917782 L333.886029,87.2607803 L324.197979,87.2450103 L273.522595,13.4917782 L273.401692,87.2607803 L260.758341,87.2607803 L260.758341,1.13228747" fill="#1FD3EF"></path>
		<path d="M428.068797,32.504115 C428.068797,32.504115 420.27315,32.5913758 417.204304,32.5913758 C415.364468,10.8634415 421.480082,3.23495688 439.379055,1.75572895 C458.907598,1.0513347 473.100616,1.35832444 490.784066,1.75257495 C503.90262,2.77342094 509.809018,7.90498563 511.507975,20.9783326 C512.045207,25.1153347 512.098825,29.3805996 511.807606,33.547039 C510.953922,45.7498809 505.371335,51.69623 493.139055,52.8758275 C478.506579,54.28777 463.822587,55.1551211 449.166982,56.3431294 C445.161396,56.6679918 441.128476,57.0380616 437.199639,57.837076 C429.889708,59.3236632 427.17306,61.0215688 426.841889,68.3367556 C426.72414,70.9440657 426.991179,74.5837864 426.991179,77.8008706 L511.824427,77.8008706 L511.912739,87.2607803 L416.838439,87.2607803 C416.942522,80.0034168 416.264411,71.8860616 417.328361,64.6255441 C418.786563,54.6841232 425.403663,49.8427269 434.636485,48.2036961 C449.83563,45.5059713 465.303918,45.6100534 480.628172,44.1728789 C484.282612,43.8301437 487.933897,43.3959425 491.559951,42.8345298 C493.823474,42.483384 495.235417,42.7746037 497.544148,40.3008131 C501.836747,37.8480493 501.236435,26.0205339 500.172485,18.3110965 C498.844649,12.6465051 493.3714,10.268386 488.010645,10.0665298 C472.258497,9.473577 456.490579,9.44519097 440.740534,10.0938645 C432.944887,10.4155729 428.902505,14.9646982 428.23701,23.529922 C428.009922,26.4463244 428.068797,32.504115 428.068797,32.504115" fill="#5D5D5D"></path>
		<path d="M151.56777,11.1704312 L151.610875,0.875761807 C151.610875,0.875761807 202.170612,0.857889117 224.766949,0.876813142 C239.808394,0.889429158 246.546398,7.52335113 246.820797,22.6057988 C246.907006,27.3252402 246.762973,32.0257577 246.160559,36.7399425 C244.923138,46.4353511 239.86832,51.7130513 230.088805,53.2816427 C223.637815,54.3151047 217.160542,53.8777495 210.694834,53.9082382 C195.128772,53.979729 179.561659,53.9313676 163.314333,53.9313676 L163.314333,87.2607803 L151.637158,87.2607803 L151.637158,43.6303901 C151.637158,43.6303901 195.96984,43.9016345 215.234497,43.6556222 C229.962645,43.4684846 235.919507,42.3372485 233.718012,22.1831622 C232.859072,14.323384 229.968953,11.6077864 221.681281,11.4322136 C207.849922,11.1378398 151.56777,11.1704312 151.56777,11.1704312" fill="#1FD3EF"></path>
		<path d="M64.3406324,87.7128542 C46.1472854,87.7139055 27.9528871,87.7580616 9.75954004,87.6907762 C3.36321971,87.6676468 -0.0157700205,83.9385626 0.968279261,78.2277125 C1.86506776,73.0215031 5.46063244,71.7630554 10.1926899,71.7714661 C43.256115,71.8303409 76.3205914,71.8019548 109.384016,71.8019548 C112.882858,71.8019548 116.383803,71.7220534 119.879491,71.8219302 C125.225528,71.9743737 128.30699,74.9033922 128.364813,79.7185051 C128.423688,84.517848 125.375869,87.6403121 119.970957,87.6708008 C101.428567,87.774883 82.8840739,87.7107515 64.3406324,87.7128542" fill="#1FD3EF"></path>
		<path d="M64.3406324,53.8073101 C46.1472854,53.8083614 27.9528871,53.8525175 9.75954004,53.785232 C3.36321971,53.7621027 -0.0157700205,50.0330185 0.968279261,44.3221684 C1.86506776,39.1159589 5.46063244,37.8575113 10.1926899,37.865922 C43.256115,37.925848 76.3205914,37.8964107 109.384016,37.8964107 C112.882858,37.8964107 116.383803,37.8165092 119.879491,37.916386 C125.225528,38.0688296 128.30699,40.997848 128.364813,45.812961 C128.423688,50.6123039 125.375869,53.734768 119.970957,53.7652567 C101.428567,53.8693388 82.8840739,53.8052074 64.3406324,53.8073101" fill="#5D5D5D"></path>
		<path d="M64.3406324,18.0619302 C46.1472854,18.0629815 27.9528871,18.1071376 9.75954004,18.0398522 C3.36321971,18.0167228 -0.0157700205,14.2876386 0.968279261,8.5767885 C1.86506776,3.37057906 5.46063244,2.11213142 10.1926899,2.12054209 C43.256115,2.17941684 76.3205914,2.1510308 109.384016,2.1510308 C112.882858,2.1510308 116.383803,2.0721807 119.879491,2.17100616 C125.225528,2.32344969 128.30699,5.25246817 128.364813,10.0675811 C128.423688,14.866924 125.375869,17.9893881 119.970957,18.0198768 C101.428567,18.1239589 82.8840739,18.0598275 64.3406324,18.0619302" fill="#1FD3EF"></path>
	</g>
</svg>

<svg width="512" height="88" xmlns="http://www.w3.org/2000/svg" preserveAspectRatio="xMidYMid"><path d="M260.758 1.132h19.024c16.046 23.129 32.634 47.543 49.373 71.673 16.687-24.07 32.718-48.263 48.953-71.682h19.034V87.26h-12.545V13.49l-50.711 73.77-9.688-.016-50.675-73.753-.121 73.769h-12.644V1.132" fill="#1FD3EF"/><path d="M428.069 32.504s-7.796.087-10.865.087c-1.84-21.728 4.276-29.356 22.175-30.835 19.529-.705 33.722-.398 51.405-.003 13.119 1.02 19.025 6.152 20.724 19.225.537 4.137.59 8.403.3 12.569-.854 12.203-6.437 18.15-18.669 19.329-14.632 1.412-29.316 2.28-43.972 3.467-4.006.325-8.039.695-11.967 1.494-7.31 1.487-10.027 3.185-10.358 10.5-.118 2.607.15 6.247.15 9.464h84.832l.089 9.46h-95.075c.105-7.258-.574-15.375.49-22.635 1.459-9.942 8.076-14.783 17.308-16.422 15.2-2.698 30.668-2.594 45.992-4.031a183.4 183.4 0 0010.932-1.338c2.263-.352 3.675-.06 5.984-2.534 4.293-2.453 3.692-14.28 2.628-21.99-1.327-5.664-6.8-8.043-12.161-8.244-15.753-.593-31.52-.622-47.27.027-7.796.322-11.838 4.87-12.504 13.436-.227 2.916-.168 8.974-.168 8.974" fill="#5D5D5D"/><path d="M151.568 11.17L151.61.876s50.56-.018 73.156 0c15.041.013 21.78 6.647 22.054 21.73.086 4.72-.058 9.42-.66 14.134-1.238 9.695-6.293 14.973-16.072 16.542-6.451 1.033-12.928.596-19.394.626-15.566.072-31.133.023-47.38.023v33.33h-11.678V43.63s44.333.27 63.597.025c14.729-.188 20.686-1.319 18.484-21.473-.859-7.86-3.749-10.575-12.037-10.75-13.831-.295-70.113-.263-70.113-.263M64.34 87.713c-18.193 0-36.387.045-54.58-.022-6.397-.023-9.776-3.752-8.792-9.463.897-5.206 4.493-6.465 9.225-6.457 33.063.06 66.128.031 99.191.031 3.499 0 7-.08 10.495.02 5.347.152 8.428 3.081 8.486 7.897.059 4.799-2.99 7.921-8.394 7.952-18.542.104-37.087.04-55.63.042" fill="#1FD3EF"/><path d="M64.34 53.807c-18.193.001-36.387.046-54.58-.022-6.397-.023-9.776-3.752-8.792-9.463.897-5.206 4.493-6.464 9.225-6.456 33.063.06 66.128.03 99.191.03 3.499 0 7-.08 10.495.02 5.347.153 8.428 3.082 8.486 7.897.059 4.8-2.99 7.922-8.394 7.952-18.542.104-37.087.04-55.63.042" fill="#5D5D5D"/><path d="M64.34 18.062c-18.193.001-36.387.045-54.58-.022-6.397-.023-9.776-3.752-8.792-9.463.897-5.206 4.493-6.465 9.225-6.456 33.063.058 66.128.03 99.191.03 3.499 0 7-.079 10.495.02 5.347.152 8.428 3.081 8.486 7.897.059 4.799-2.99 7.921-8.394 7.952-18.542.104-37.087.04-55.63.042" fill="#1FD3EF"/></svg>
